.claude/skills/bviro-video/brand/bviro_look.cube
TITLE "Bviro look (mix 0.6)"
LUT_3D_SIZE 33
DOMAIN_MIN 0 0 0
DOMAIN_MAX 1 1 1
0.010623 0.000000 0.021804
0.035820 0.000000 0.021116
0.062215 0.000000 0.020413
0.089736 0.000000 0.019695
0.118306 0.000000 0.018964
0.147852 0.000000 0.018221
0.178297 0.000000 0.017467
0.209567 0.000000 0.016704
0.241583 0.000000 0.015933
0.274270 0.000000 0.015155
0.307552 0.000000 0.014371
0.341349 0.000000 0.013583
0.375585 0.000000 0.012792
0.410181 0.000000 0.011999
0.445059 0.000000 0.011206
0.480140 0.000000 0.010413
0.515345 0.000000 0.009622
0.550595 0.000000 0.008835
0.585808 0.000000 0.008053
0.620907 0.000000 0.007276
0.655808 0.000000 0.006507
0.690433 0.000000 0.005747
0.724700 0.000000 0.004996
0.758528 0.000000 0.004257
0.791834 0.000000 0.003531
0.824538 0.000000 0.002819
0.856556 0.000000 0.002123
0.887807 0.000000 0.001443
0.918207 0.000000 0.000781
0.947675 0.000000 0.000140
0.976126 0.000000 0.000000
1.000000 0.000000 0.000000
1.000000 0.000000 0.000000
0.009144 0.024929 0.019502
0.034395 0.024737 0.018825
0.060849 0.024525 0.018132
0.088431 0.024295 0.017425
0.117067 0.024048 0.016705
0.146680 0.023785 0.015973
0.177195 0.023508 0.015230
0.208535 0.023217 0.014478
0.240624 0.022915 0.013718
0.273385 0.022601 0.012951
0.306741 0.022278 0.012178
0.340613 0.021947 0.011402
0.374923 0.021608 0.010622
0.409594 0.021264 0.009841
0.444546 0.020915 0.009059
0.479700 0.020563 0.008278
0.514977 0.020208 0.007500
0.550296 0.019853 0.006725
0.585578 0.019498 0.005955
0.620742 0.019145 0.005191
0.655708 0.018796 0.004435
0.690394 0.018450 0.003688
0.724719 0.018110 0.002951
0.758602 0.017777 0.002225
0.791961 0.017453 0.001513
0.824713 0.017138 0.000815
0.856776 0.016834 0.000133
0.888068 0.016542 0.000000
0.918506 0.016264 0.000000
0.948006 0.016000 0.000000
0.976486 0.015753 0.000000
1.000000 0.015523 0.000000
1.000000 0.015313 0.000000
0.007616 0.051131 0.017173
0.032921 0.050953 0.016507
0.059432 0.050754 0.015825
0.087075 0.050538 0.015129
0.115773 0.050304 0.014420
0.145452 0.050054 0.013699
0.176035 0.049790 0.012967
0.207444 0.049512 0.012227
0.239604 0.049222 0.011478
0.272437 0.048921 0.010723
0.305864 0.048610 0.009962
0.339809 0.048291 0.009197
0.374192 0.047964 0.008430
0.408934 0.047632 0.007661
0.443957 0.047295 0.006891
0.479182 0.046954 0.006123
0.514527 0.046611 0.005357
0.549914 0.046267 0.004595
0.585261 0.045924 0.003838
0.620489 0.045582 0.003088
0.655516 0.045243 0.002345
0.690260 0.044908 0.001611
0.724641 0.044579 0.000888
0.758577 0.044257 0.000177
0.791984 0.043943 0.000000
0.824782 0.043639 0.000000
0.856888 0.043345 0.000000
0.888218 0.043063 0.000000
0.918690 0.042795 0.000000
0.948220 0.042542 0.000000
0.976726 0.042305 0.000000
1.000000 0.042085 0.000000
1.000000 0.041884 0.000000
0.006045 0.078490 0.014822
0.031402 0.078325 0.014167
0.057969 0.078140 0.013497
0.085671 0.077937 0.012812
0.114431 0.077717 0.012114
0.144173 0.077481 0.011405
0.174822 0.077229 0.010685
0.206298 0.076964 0.009956
0.238527 0.076687 0.009220
0.271429 0.076399 0.008476
0.304926 0.076100 0.007728
0.338941 0.075793 0.006975
0.373394 0.075479 0.006220
0.408206 0.075158 0.005464
0.443297 0.074833 0.004707
0.478589 0.074504 0.003952
0.514001 0.074172 0.003200
0.549452 0.073840 0.002451
0.584862 0.073508 0.001708
0.620151 0.073177 0.000971
0.655235 0.072849 0.000243
0.690035 0.072525 0.000000
0.724469 0.072207 0.000000
0.758454 0.071895 0.000000
0.791907 0.071591 0.000000
0.824748 0.071297 0.000000
0.856892 0.071014 0.000000
0.888258 0.070742 0.000000
0.918761 0.070484 0.000000
0.948318 0.070240 0.000000
0.976846 0.070012 0.000000
1.000000 0.069802 0.000000
1.000000 0.069610 0.000000
0.004433 0.106935 0.012454
0.029842 0.106784 0.011811
0.056464 0.106614 0.011152
0.084223 0.106424 0.010479
0.113043 0.106217 0.009793
0.142848 0.105994 0.009096
0.173560 0.105756 0.008388
0.205102 0.105504 0.007672
0.237397 0.105239 0.006948
0.270366 0.104963 0.006217
0.303931 0.104677 0.005481
0.338013 0.104383 0.004742
0.372533 0.104080 0.004000
0.407412 0.103771 0.003257
0.442570 0.103457 0.002514
0.477926 0.103140 0.001772
0.513402 0.102820 0.001034
0.548914 0.102498 0.000299
0.584384 0.102177 0.000000
0.619730 0.101857 0.000000
0.654870 0.101540 0.000000
0.689722 0.101226 0.000000
0.724204 0.100918 0.000000
0.758235 0.100617 0.000000
0.791732 0.100323 0.000000
0.824612 0.100038 0.000000
0.856792 0.099764 0.000000
0.888189 0.099502 0.000000
0.918720 0.099253 0.000000
0.948301 0.099018 0.000000
0.976849 0.098800 0.000000
1.000000 0.098598 0.000000
1.000000 0.098415 0.000000
0.002787 0.136396 0.010074
0.028246 0.136259 0.009443
0.054921 0.136103 0.008796
0.082736 0.135927 0.008136
0.111614 0.135733 0.007462
0.141479 0.135523 0.006778
0.172254 0.135298 0.006083
0.203859 0.135058 0.005379
0.236218 0.134806 0.004668
0.269252 0.134542 0.003951
0.302883 0.134268 0.003228
0.337030 0.133985 0.002502
0.371615 0.133694 0.001774
0.406558 0.133397 0.001045
0.441779 0.133094 0.000316
0.477197 0.132788 0.000000
0.512732 0.132478 0.000000
0.548304 0.132167 0.000000
0.583830 0.131856 0.000000
0.619230 0.131547 0.000000
0.654421 0.131239 0.000000
0.689322 0.130936 0.000000
0.723851 0.130637 0.000000
0.757925 0.130345 0.000000
0.791461 0.130061 0.000000
0.824377 0.129785 0.000000
0.856589 0.129520 0.000000
0.888014 0.129266 0.000000
0.918570 0.129026 0.000000
0.948171 0.128799 0.000000
0.976735 0.128588 0.000000
1.000000 0.128394 0.000000
1.000000 0.128218 0.000000
0.001111 0.166801 0.007688
0.026619 0.166678 0.007069
0.053345 0.166534 0.006435
0.081215 0.166372 0.005788
0.110150 0.166191 0.005127
0.140074 0.165993 0.004456
0.170908 0.165780 0.003774
0.202575 0.165553 0.003084
0.234996 0.165313 0.002387
0.268093 0.165061 0.001683
0.301785 0.164798 0.000975
0.335995 0.164526 0.000263
0.370642 0.164246 0.000000
0.405646 0.163960 0.000000
0.440927 0.163667 0.000000
0.476405 0.163371 0.000000
0.511997 0.163072 0.000000
0.547624 0.162771 0.000000
0.583204 0.162469 0.000000
0.618654 0.162169 0.000000
0.653894 0.161871 0.000000
0.688840 0.161576 0.000000
0.723411 0.161286 0.000000
0.757524 0.161002 0.000000
0.791096 0.160726 0.000000
0.824044 0.160458 0.000000
0.856284 0.160201 0.000000
0.887734 0.159954 0.000000
0.918310 0.159721 0.000000
0.947927 0.159501 0.000000
0.976503 0.159296 0.000000
1.000000 0.159108 0.000000
1.000000 0.158938 0.000000
0.000000 0.198074 0.005301
0.024965 0.197964 0.004696
0.051742 0.197834 0.004075
0.079664 0.197683 0.003441
0.108655 0.197515 0.002794
0.138635 0.197329 0.002137
0.169527 0.197128 0.001469
0.201253 0.196912 0.000793
0.233734 0.196683 0.000110
0.266891 0.196442 0.000000
0.300644 0.196190 0.000000
0.334914 0.195928 0.000000
0.369620 0.195658 0.000000
0.404682 0.195381 0.000000
0.440020 0.195099 0.000000
0.475553 0.194812 0.000000
0.511200 0.194521 0.000000
0.546879 0.194229 0.000000
0.582508 0.193936 0.000000
0.618006 0.193644 0.000000
0.653290 0.193354 0.000000
0.688278 0.193067 0.000000
0.722887 0.192784 0.000000
0.757035 0.192507 0.000000
0.790638 0.192238 0.000000
0.823614 0.191976 0.000000
0.855879 0.191725 0.000000
0.887348 0.191484 0.000000
0.917940 0.191256 0.000000
0.947569 0.191041 0.000000
0.976152 0.190841 0.000000
1.000000 0.190657 0.000000
1.000000 0.190490 0.000000
0.000000 0.230140 0.002920
0.023290 0.230043 0.002328
0.050116 0.229924 0.001722
0.078090 0.229785 0.001102
0.107133 0.229628 0.000470
0.137168 0.229453 0.000000
0.168117 0.229263 0.000000
0.199900 0.229057 0.000000
0.232438 0.228838 0.000000
0.265652 0.228607 0.000000
0.299463 0.228364 0.000000
0.333789 0.228112 0.000000
0.368552 0.227851 0.000000
0.403670 0.227583 0.000000
0.439062 0.227308 0.000000
0.474647 0.227029 0.000000
0.510344 0.226746 0.000000
0.546071 0.226462 0.000000
0.581746 0.226176 0.000000
0.617287 0.225890 0.000000
0.652612 0.225606 0.000000
0.687637 0.225325 0.000000
0.722281 0.225048 0.000000
0.756459 0.224777 0.000000
0.790090 0.224512 0.000000
0.823088 0.224255 0.000000
0.855372 0.224007 0.000000
0.886857 0.223770 0.000000
0.917459 0.223544 0.000000
0.947094 0.223332 0.000000
0.975679 0.223134 0.000000
1.000000 0.222951 0.000000
1.000000 0.222785 0.000000
0.000000 0.262921 0.000551
0.021599 0.262834 0.000000
0.048473 0.262726 0.000000
0.076496 0.262597 0.000000
0.105591 0.262450 0.000000
0.135679 0.262286 0.000000
0.166681 0.262104 0.000000
0.198519 0.261908 0.000000
0.231112 0.261698 0.000000
0.264381 0.261475 0.000000
0.298246 0.261241 0.000000
0.332627 0.260996 0.000000
0.367443 0.260742 0.000000
0.402613 0.260481 0.000000
0.438055 0.260214 0.000000
0.473689 0.259941 0.000000
0.509433 0.259664 0.000000
0.545204 0.259385 0.000000
0.580921 0.259104 0.000000
0.616501 0.258823 0.000000
0.651862 0.258544 0.000000
0.686920 0.258267 0.000000
0.721593 0.257993 0.000000
0.755798 0.257724 0.000000
0.789450 0.257462 0.000000
0.822466 0.257207 0.000000
0.854763 0.256960 0.000000
0.886257 0.256723 0.000000
0.916863 0.256498 0.000000
0.946498 0.256285 0.000000
0.975076 0.256085 0.000000
1.000000 0.255899 0.000000
1.000000 0.255729 0.000000
0.000000 0.296335 0.000000
0.019898 0.296258 0.000000
0.046818 0.296159 0.000000
0.074889 0.296040 0.000000
0.104034 0.295902 0.000000
0.134173 0.295745 0.000000
0.165227 0.295572 0.000000
0.197116 0.295383 0.000000
0.229762 0.295180 0.000000
0.263083 0.294964 0.000000
0.297000 0.294736 0.000000
0.331432 0.294497 0.000000
0.366297 0.294250 0.000000
0.401516 0.293994 0.000000
0.437005 0.293731 0.000000
0.472684 0.293462 0.000000
0.508470 0.293189 0.000000
0.544282 0.292913 0.000000
0.580036 0.292635 0.000000
0.615651 0.292357 0.000000
0.651043 0.292079 0.000000
0.686129 0.291803 0.000000
0.720825 0.291530 0.000000
0.755050 0.291261 0.000000
0.788717 0.290998 0.000000
0.821745 0.290741 0.000000
0.854048 0.290492 0.000000
0.885543 0.290251 0.000000
0.916145 0.290021 0.000000
0.945769 0.289802 0.000000
0.974330 0.289594 0.000000
1.000000 0.289400 0.000000
1.000000 0.289218 0.000000
0.000000 0.330301 0.000000
0.018192 0.330232 0.000000
0.045157 0.330141 0.000000
0.073275 0.330030 0.000000
0.102467 0.329898 0.000000
0.132654 0.329748 0.000000
0.163758 0.329581 0.000000
0.195697 0.329398 0.000000
0.228392 0.329200 0.000000
0.261763 0.328989 0.000000
0.295729 0.328765 0.000000
0.330208 0.328531 0.000000
0.365120 0.328286 0.000000
0.400383 0.328033 0.000000
0.435916 0.327772 0.000000
0.471635 0.327505 0.000000
0.507460 0.327234 0.000000
0.543307 0.326958 0.000000
0.579094 0.326680 0.000000
0.614737 0.326401 0.000000
0.650155 0.326121 0.000000
0.685262 0.325842 0.000000
0.719976 0.325566 0.000000
0.754213 0.325293 0.000000
0.787888 0.325024 0.000000
0.820918 0.324760 0.000000
0.853218 0.324503 0.000000
0.884702 0.324253 0.000000
0.915286 0.324010 0.000000
0.944882 0.323775 0.000000
0.973403 0.323547 0.000000
1.000000 0.323321 0.000000
1.000000 0.323103 0.000000
0.000000 0.364736 0.000000
0.016488 0.364673 0.000000
0.043496 0.364588 0.000000
0.071658 0.364482 0.000000
0.100897 0.364355 0.000000
0.131131 0.364210 0.000000
0.162281 0.364046 0.000000
0.194268 0.363867 0.000000
0.227010 0.363672 0.000000
0.260427 0.363463 0.000000
0.294438 0.363241 0.000000
0.328961 0.363007 0.000000
0.363916 0.362763 0.000000
0.399220 0.362510 0.000000
0.434791 0.362248 0.000000
0.470546 0.361980 0.000000
0.506404 0.361706 0.000000
0.542281 0.361427 0.000000
0.578095 0.361145 0.000000
0.613761 0.360860 0.000000
0.649197 0.360574 0.000000
0.684318 0.360288 0.000000
0.719041 0.360002 0.000000
0.753281 0.359718 0.000000
0.786952 0.359436 0.000000
0.819971 0.359157 0.000000
0.852249 0.358880 0.000000
0.883696 0.358603 0.000000
0.914213 0.358319 0.000000
0.943742 0.358047 0.000000
0.972208 0.357791 0.000000
0.999530 0.357554 0.000000
1.000000 0.357337 0.000000
0.000000 0.399552 0.000000
0.014793 0.399494 0.000000
0.041842 0.399412 0.000000
0.070047 0.399309 0.000000
0.099329 0.399185 0.000000
0.129608 0.399041 0.000000
0.160803 0.398879 0.000000
0.192834 0.398700 0.000000
0.225620 0.398505 0.000000
0.259080 0.398295 0.000000
0.293133 0.398072 0.000000
0.327697 0.397836 0.000000
0.362690 0.397588 0.000000
0.398030 0.397331 0.000000
0.433634 0.397065 0.000000
0.469421 0.396790 0.000000
0.505306 0.396509 0.000000
0.541207 0.396222 0.000000
0.577039 0.395930 0.000000
0.612720 0.395634 0.000000
0.648165 0.395334 0.000000
0.683290 0.395032 0.000000
0.718007 0.394727 0.000000
0.752232 0.394418 0.000000
0.785871 0.394101 0.000000
0.818834 0.393774 0.000000
0.851060 0.393458 0.000000
0.882470 0.393155 0.000000
0.912980 0.392867 0.000000
0.942509 0.392595 0.000000
0.970975 0.392339 0.000000
0.998297 0.392102 0.000000
1.000000 0.391885 0.000000
0.000000 0.434663 0.000000
0.013112 0.434606 0.000000
0.040202 0.434525 0.000000
0.068448 0.434422 0.000000
0.097772 0.434297 0.000000
0.128092 0.434152 0.000000
0.159329 0.433988 0.000000
0.191402 0.433806 0.000000
0.224228 0.433607 0.000000
0.257728 0.433393 0.000000
0.291819 0.433164 0.000000
0.326419 0.432921 0.000000
0.361446 0.432666 0.000000
0.396817 0.432400 0.000000
0.432450 0.432123 0.000000
0.468261 0.431836 0.000000
0.504166 0.431540 0.000000
0.540082 0.431237 0.000000
0.575924 0.430925 0.000000
0.611607 0.430605 0.000000
0.647044 0.430275 0.000000
0.682140 0.429925 0.000000
0.716819 0.429570 0.000000
0.751008 0.429223 0.000000
0.784624 0.428885 0.000000
0.817587 0.428558 0.000000
0.849814 0.428242 0.000000
0.881223 0.427940 0.000000
0.911733 0.427651 0.000000
0.941262 0.427379 0.000000
0.969728 0.427124 0.000000
0.997050 0.426886 0.000000
1.000000 0.426669 0.000000
0.000000 0.469978 0.000000
0.011455 0.469919 0.000000
0.038583 0.469836 0.000000
0.066868 0.469729 0.000000
0.096232 0.469599 0.000000
0.126592 0.469449 0.000000
0.157868 0.469279 0.000000
0.189979 0.469089 0.000000
0.222844 0.468882 0.000000
0.256379 0.468658 0.000000
0.290504 0.468417 0.000000
0.325136 0.468162 0.000000
0.360191 0.467892 0.000000
0.395587 0.467608 0.000000
0.431240 0.467311 0.000000
0.467067 0.467001 0.000000
0.502981 0.466677 0.000000
0.538897 0.466335 0.000000
0.574722 0.465965 0.000000
0.610382 0.465594 0.000000
0.645797 0.465228 0.000000
0.680885 0.464866 0.000000
0.715564 0.464512 0.000000
0.749753 0.464165 0.000000
0.783369 0.463827 0.000000
0.816332 0.463499 0.000000
0.848558 0.463184 0.000000
0.879967 0.462881 0.000000
0.910478 0.462593 0.000000
0.940007 0.462320 0.000000
0.968473 0.462065 0.000000
0.995795 0.461828 0.000000
1.000000 0.461610 0.000000
0.000000 0.505403 0.000000
0.009829 0.505338 0.000000
0.036994 0.505248 0.000000
0.065317 0.505133 0.000000
0.094718 0.504994 0.000000
0.125116 0.504833 0.000000
0.156429 0.504651 0.000000
0.188576 0.504448 0.000000
0.221474 0.504225 0.000000
0.255041 0.503983 0.000000
0.289195 0.503723 0.000000
0.323852 0.503444 0.000000
0.358929 0.503146 0.000000
0.394342 0.502827 0.000000
0.430004 0.502480 0.000000
0.465827 0.502107 0.000000
0.501733 0.501733 0.000000
0.537638 0.501358 0.000000
0.573462 0.500985 0.000000
0.609122 0.500615 0.000000
0.644537 0.500248 0.000000
0.679625 0.499887 0.000000
0.714304 0.499532 0.000000
0.748493 0.499185 0.000000
0.782109 0.498847 0.000000
0.815072 0.498519 0.000000
0.847298 0.498204 0.000000
0.878708 0.497901 0.000000
0.909218 0.497613 0.000000
0.938747 0.497341 0.000000
0.967213 0.497085 0.000000
0.994535 0.496848 0.000000
1.000000 0.496630 0.000000
0.000000 0.540841 0.000000
0.008246 0.540765 0.000000
0.035446 0.540662 0.000000
0.063806 0.540533 0.000000
0.093243 0.540378 0.000000
0.123675 0.540199 0.000000
0.155023 0.539996 0.000000
0.187202 0.539770 0.000000
0.220130 0.539520 0.000000
0.253725 0.539245 0.000000
0.287903 0.538942 0.000000
0.322581 0.538599 0.000000
0.357669 0.538238 0.000000
0.393084 0.537871 0.000000
0.428744 0.537501 0.000000
0.464568 0.537127 0.000000
0.500473 0.536753 0.000000
0.536378 0.536378 0.000000
0.572202 0.536005 0.000000
0.607862 0.535635 0.000000
0.643277 0.535268 0.000000
0.678365 0.534907 0.000000
0.713044 0.534552 0.000000
0.747233 0.534205 0.000000
0.780849 0.533867 0.000000
0.813812 0.533539 0.000000
0.846039 0.533224 0.000000
0.877448 0.532921 0.000000
0.907958 0.532633 0.000000
0.937487 0.532361 0.000000
0.965953 0.532105 0.000000
0.993275 0.531868 0.000000
1.000000 0.531651 0.000000
0.000000 0.576188 0.000000
0.006717 0.576093 0.000000
0.033953 0.575970 0.000000
0.062348 0.575817 0.000000
0.091820 0.575635 0.000000
0.122287 0.575425 0.000000
0.153667 0.575183 0.000000
0.185879 0.574905 0.000000
0.218841 0.574580 0.000000
0.252458 0.574243 0.000000
0.286646 0.573896 0.000000
0.321325 0.573541 0.000000
0.356413 0.573179 0.000000
0.391828 0.572813 0.000000
0.427489 0.572442 0.000000
0.463312 0.572069 0.000000
0.499218 0.571694 0.000000
0.535123 0.571320 0.000000
0.570947 0.570947 0.000000
0.606607 0.570576 0.000000
0.642022 0.570209 0.000000
0.677110 0.569848 0.000000
0.711789 0.569493 0.000000
0.745978 0.569146 0.000000
0.779594 0.568808 0.000000
0.812557 0.568481 0.000000
0.844783 0.568165 0.000000
0.876192 0.567863 0.000000
0.906702 0.567575 0.000000
0.936232 0.567302 0.000000
0.964692 0.567048 0.000000
0.991954 0.566825 0.000000
1.000000 0.566630 0.000000
0.000000 0.611330 0.000000
0.005262 0.611204 0.000000
0.032536 0.611044 0.000000
0.060970 0.610846 0.000000
0.090486 0.610598 0.000000
0.120996 0.610310 0.000000
0.152405 0.610008 0.000000
0.184632 0.609692 0.000000
0.217595 0.609365 0.000000
0.251211 0.609027 0.000000
0.285400 0.608680 0.000000
0.320079 0.608325 0.000000
0.355167 0.607963 0.000000
0.390582 0.607597 0.000000
0.426242 0.607226 0.000000
0.462066 0.606853 0.000000
0.497971 0.606478 0.000000
0.533876 0.606104 0.000000
0.569700 0.605731 0.000000
0.605360 0.605360 0.000000
0.640775 0.604994 0.000000
0.675863 0.604632 0.000000
0.710542 0.604277 0.000000
0.744731 0.603930 0.000000
0.778347 0.603592 0.000000
0.811310 0.603265 0.000000
0.843537 0.602949 0.000000
0.874926 0.602651 0.000000
0.905367 0.602378 0.000000
0.934796 0.602127 0.000000
0.963135 0.601897 0.000000
0.990305 0.601689 0.000000
1.000000 0.601504 0.000000
0.000000 0.646118 0.000000
0.003936 0.645912 0.000000
0.031257 0.645674 0.000000
0.059724 0.645419 0.000000
0.089253 0.645146 0.000000
0.119763 0.644858 0.000000
0.151172 0.644556 0.000000
0.183399 0.644240 0.000000
0.216361 0.643913 0.000000
0.249978 0.643575 0.000000
0.284166 0.643228 0.000000
0.318845 0.642873 0.000000
0.353933 0.642512 0.000000
0.389348 0.642145 0.000000
0.425008 0.641774 0.000000
0.460832 0.641401 0.000000
0.496738 0.641027 0.000000
0.532643 0.640652 0.000000
0.568467 0.640279 0.000000
0.604127 0.639908 0.000000
0.639542 0.639542 0.000000
0.674630 0.639180 0.000000
0.709309 0.638825 0.000000
0.743498 0.638478 0.000000
0.777078 0.638148 0.000000
0.809968 0.637835 0.000000
0.842094 0.637538 0.000000
0.873378 0.637258 0.000000
0.903739 0.636995 0.000000
0.933097 0.636751 0.000000
0.961370 0.636526 0.000000
0.988477 0.636322 0.000000
1.000000 0.636140 0.000000
0.000000 0.680363 0.000000
0.002720 0.680145 0.000000
0.030042 0.679908 0.000000
0.058508 0.679652 0.000000
0.088037 0.679380 0.000000
0.118547 0.679092 0.000000
0.149956 0.678789 0.000000
0.182183 0.678474 0.000000
0.215145 0.678146 0.000000
0.248762 0.677808 0.000000
0.282950 0.677461 0.000000
0.317630 0.677106 0.000000
0.352718 0.676745 0.000000
0.388133 0.676378 0.000000
0.423793 0.676008 0.000000
0.459616 0.675635 0.000000
0.495522 0.675260 0.000000
0.531427 0.674886 0.000000
0.567251 0.674513 0.000000
0.602911 0.674142 0.000000
0.638320 0.673776 0.000000
0.673363 0.673423 0.000000
0.707970 0.673081 0.000000
0.742062 0.672750 0.000000
0.775558 0.672430 0.000000
0.808377 0.672124 0.000000
0.840438 0.671831 0.000000
0.871659 0.671554 0.000000
0.901959 0.671292 0.000000
0.931258 0.671049 0.000000
0.959474 0.670824 0.000000
0.986526 0.670619 0.000000
1.000000 0.670435 0.000000
0.000000 0.714203 0.000000
0.001526 0.713985 0.000000
0.028848 0.713748 0.000000
0.057314 0.713493 0.000000
0.086843 0.713220 0.000000
0.117353 0.712932 0.000000
0.148762 0.712630 0.000000
0.180989 0.712314 0.000000
0.213952 0.711986 0.000000
0.247568 0.711649 0.000000
0.281757 0.711302 0.000000
0.316436 0.710947 0.000000
0.351524 0.710585 0.000000
0.386939 0.710219 0.000000
0.422599 0.709848 0.000000
0.458423 0.709475 0.000000
0.494328 0.709100 0.000000
0.530218 0.708729 0.000000
0.565996 0.708363 0.000000
0.601587 0.708002 0.000000
0.636911 0.707648 0.000000
0.671886 0.707300 0.000000
0.706431 0.706962 0.000000
0.740462 0.706632 0.000000
0.773900 0.706313 0.000000
0.806661 0.706006 0.000000
0.838665 0.705713 0.000000
0.869830 0.705433 0.000000
0.900075 0.705169 0.000000
0.929318 0.704923 0.000000
0.957480 0.704694 0.000000
0.984480 0.704485 0.000000
1.000000 0.704296 0.000000
0.000000 0.747571 0.000000
0.000359 0.747354 0.000000
0.027680 0.747116 0.000000
0.056147 0.746861 0.000000
0.085676 0.746589 0.000000
0.116186 0.746300 0.000000
0.147595 0.745998 0.000000
0.179822 0.745682 0.000000
0.212784 0.745355 0.000000
0.246401 0.745017 0.000000
0.280589 0.744670 0.000000
0.315268 0.744315 0.000000
0.350356 0.743954 0.000000
0.385771 0.743587 0.000000
0.421409 0.743219 0.000000
0.457189 0.742852 0.000000
0.493032 0.742484 0.000000
0.528855 0.742118 0.000000
0.564576 0.741754 0.000000
0.600112 0.741394 0.000000
0.635383 0.741039 0.000000
0.670304 0.740691 0.000000
0.704794 0.740350 0.000000
0.738772 0.740018 0.000000
0.772154 0.739695 0.000000
0.804861 0.739385 0.000000
0.836810 0.739087 0.000000
0.867920 0.738802 0.000000
0.898111 0.738533 0.000000
0.927302 0.738281 0.000000
0.955411 0.738046 0.000000
0.982360 0.737831 0.000000
1.000000 0.737635 0.000000
0.000000 0.780389 0.000000
0.000000 0.780171 0.000000
0.026544 0.779934 0.000000
0.055010 0.779679 0.000000
0.084539 0.779406 0.000000
0.115049 0.779118 0.000000
0.146458 0.778816 0.000000
0.178685 0.778500 0.000000
0.211648 0.778173 0.000000
0.245264 0.777835 0.000000
0.279449 0.777488 0.000000
0.314106 0.777135 0.000000
0.349155 0.776776 0.000000
0.384516 0.776413 0.000000
0.420104 0.776046 0.000000
0.455838 0.775677 0.000000
0.491633 0.775308 0.000000
0.527409 0.774939 0.000000
0.563081 0.774573 0.000000
0.598568 0.774209 0.000000
0.633787 0.773850 0.000000
0.668656 0.773497 0.000000
0.703094 0.773151 0.000000
0.737017 0.772813 0.000000
0.770346 0.772485 0.000000
0.802999 0.772168 0.000000
0.834893 0.771863 0.000000
0.865950 0.771572 0.000000
0.896087 0.771296 0.000000
0.925224 0.771036 0.000000
0.953282 0.770793 0.000000
0.980180 0.770569 0.000000
1.000000 0.770365 0.000000
0.000000 0.812577 0.000000
0.000000 0.812360 0.000000
0.025442 0.812123 0.000000
0.053909 0.811867 0.000000
0.083438 0.811595 0.000000
0.113948 0.811307 0.000000
0.145357 0.811004 0.000000
0.177577 0.810688 0.000000
0.210521 0.810360 0.000000
0.244107 0.810022 0.000000
0.278251 0.809674 0.000000
0.312871 0.809318 0.000000
0.347882 0.808956 0.000000
0.383203 0.808589 0.000000
0.418750 0.808218 0.000000
0.454440 0.807845 0.000000
0.490191 0.807470 0.000000
0.525919 0.807096 0.000000
0.561543 0.806723 0.000000
0.596979 0.806354 0.000000
0.632147 0.805988 0.000000
0.666964 0.805628 0.000000
0.701348 0.805275 0.000000
0.735218 0.804930 0.000000
0.768492 0.804594 0.000000
0.801090 0.804269 0.000000
0.832930 0.803956 0.000000
0.863932 0.803656 0.000000
0.894015 0.803371 0.000000
0.923099 0.803102 0.000000
0.951105 0.802850 0.000000
0.977952 0.802617 0.000000
1.000000 0.802403 0.000000
0.000000 0.844058 0.000000
0.000000 0.843840 0.000000
0.024381 0.843603 0.000000
0.052847 0.843348 0.000000
0.082370 0.843073 0.000000
0.112867 0.842781 0.000000
0.144254 0.842474 0.000000
0.176448 0.842154 0.000000
0.209364 0.841821 0.000000
0.242919 0.841477 0.000000
0.277031 0.841123 0.000000
0.311615 0.840762 0.000000
0.346590 0.840394 0.000000
0.381870 0.840020 0.000000
0.417375 0.839643 0.000000
0.453021 0.839262 0.000000
0.488725 0.838880 0.000000
0.524405 0.838499 0.000000
0.559978 0.838118 0.000000
0.595364 0.837741 0.000000
0.630479 0.837367 0.000000
0.665242 0.836998 0.000000
0.699572 0.836636 0.000000
0.733387 0.836282 0.000000
0.766605 0.835938 0.000000
0.799147 0.835603 0.000000
0.830932 0.835281 0.000000
0.861879 0.834971 0.000000
