.claude/skills/bviro-video/brand/bviro_look.cube
TITLE "Bviro look (mix 0.6)"
LUT_3D_SIZE 5
DOMAIN_MIN 0 0 0
DOMAIN_MAX 1 1 1
0.010623 0.000000 0.021804
0.241583 0.000000 0.015933
0.515345 0.000000 0.009622
0.791834 0.000000 0.003531
1.000000 0.000000 0.000000
0.000000 0.230140 0.002920
0.232438 0.228838 0.000000
0.510344 0.226746 0.000000
0.790090 0.224512 0.000000
1.000000 0.222785 0.000000
0.000000 0.505403 0.000000
0.221474 0.504225 0.000000
0.501733 0.501733 0.000000
0.782109 0.498847 0.000000
1.000000 0.496630 0.000000
0.000000 0.780389 0.000000
0.211648 0.778173 0.000000
0.491633 0.775308 0.000000
0.770346 0.772485 0.000000
1.000000 0.770365 0.000000
0.000000 1.000000 0.000000
0.202929 1.000000 0.000000
0.480061 1.000000 0.000000
0.755129 1.000000 0.000000
0.987070 1.000000 0.000000
0.009273 0.000000 0.253908
0.240653 0.000000 0.249288
0.514892 0.000000 0.244154
0.791781 0.000000 0.239161
1.000000 0.000000 0.234992
0.000000 0.229712 0.238933
0.231530 0.228367 0.234843
0.509773 0.226229 0.230303
0.789742 0.223944 0.226020
1.000000 0.222157 0.222748
0.000000 0.505051 0.223872
0.220651 0.503710 0.220765
0.500980 0.500980 0.217718
0.781357 0.498094 0.214832
1.000000 0.495878 0.212615
0.000000 0.779636 0.213111
0.210882 0.777421 0.210929
0.490610 0.774572 0.208780
0.768991 0.771761 0.207118
1.000000 0.769654 0.206471
0.000000 1.000000 0.208176
0.201976 1.000000 0.207634
0.478758 1.000000 0.206712
0.753409 1.000000 0.206049
0.984966 0.999625 0.206279
0.007715 0.000000 0.527287
0.239504 0.000000 0.524215
0.514206 0.000000 0.520525
0.791481 0.000000 0.516868
1.000000 0.000000 0.513918
0.000000 0.229046 0.517101
0.230401 0.227657 0.514182
0.508964 0.225471 0.510676
0.789129 0.223131 0.507268
1.000000 0.221276 0.504680
0.000000 0.504425 0.505392
0.219626 0.502877 0.502890
0.500000 0.500000 0.500000
0.780376 0.497114 0.497114
1.000000 0.494911 0.494910
0.000000 0.778656 0.495394
0.209836 0.776449 0.493284
0.489317 0.773613 0.490873
0.767361 0.770816 0.488684
1.000000 0.768721 0.487338
0.000000 1.000000 0.489504
0.200791 1.000000 0.488209
0.477213 1.000000 0.486406
0.751440 1.000000 0.484750
0.982609 0.998430 0.483884
0.006164 0.000000 0.801725
0.238356 0.000000 0.800132
0.513508 0.000000 0.797812
0.791153 0.000000 0.795410
1.000000 0.000000 0.793588
0.000000 0.228365 0.796072
0.229277 0.226931 0.794231
0.508141 0.224694 0.791650
0.788472 0.222297 0.788984
1.000000 0.220358 0.786886
0.000000 0.503744 0.787321
0.218643 0.501906 0.785168
0.499020 0.499020 0.782282
0.779396 0.496134 0.779396
1.000000 0.494022 0.777182
0.000000 0.777676 0.777676
0.208762 0.775482 0.775466
0.487988 0.772659 0.772606
0.765688 0.769875 0.769773
1.000000 0.767794 0.767633
0.000000 1.000000 0.770317
0.199599 1.000000 0.768182
0.475652 1.000000 0.765421
0.749445 1.000000 0.762702
0.980220 0.997233 0.760677
0.004840 0.000000 1.000000
0.237427 0.000000 1.000000
0.513019 0.000000 1.000000
0.791020 0.000000 1.000000
1.000000 0.000000 1.000000
0.000000 0.227893 1.000000
0.228383 0.226413 1.000000
0.507530 0.224126 1.000000
0.787993 0.221667 1.000000
1.000000 0.219611 1.000000
0.000000 0.503225 1.000000
0.217891 0.501153 1.000000
0.498267 0.498267 1.000000
0.778644 0.495381 1.000000
1.000000 0.493406 1.000000
0.000000 0.776925 1.000000
0.207893 0.774746 1.000000
0.486853 0.771935 1.000000
0.764199 0.769164 1.000000
0.998310 0.767096 1.000000
0.000000 1.000000 1.000000
0.198625 1.000000 1.000000
0.474297 1.000000 1.000000
0.747647 0.999129 0.998770
0.978021 0.996254 0.995810
