.claude/skills/bviro-video/brand/bviro_look.cube
TITLE "Bviro look (mix 0.6)"
LUT_3D_SIZE 9
DOMAIN_MIN 0 0 0
DOMAIN_MAX 1 1 1
0.010623 0.000000 0.021804
0.118306 0.000000 0.018964
0.241583 0.000000 0.015933
0.375585 0.000000 0.012792
0.515345 0.000000 0.009622
0.655808 0.000000 0.006507
0.791834 0.000000 0.003531
0.918207 0.000000 0.000781
1.000000 0.000000 0.000000
0.004433 0.106935 0.012454
0.113043 0.106217 0.009793
0.237397 0.105239 0.006948
0.372533 0.104080 0.004000
0.513402 0.102820 0.001034
0.654870 0.101540 0.000000
0.791732 0.100323 0.000000
0.918720 0.099253 0.000000
1.000000 0.098415 0.000000
0.000000 0.230140 0.002920
0.107133 0.229628 0.000470
0.232438 0.228838 0.000000
0.368552 0.227851 0.000000
0.510344 0.226746 0.000000
0.652612 0.225606 0.000000
0.790090 0.224512 0.000000
0.917459 0.223544 0.000000
1.000000 0.222785 0.000000
0.000000 0.364736 0.000000
0.100897 0.364355 0.000000
0.227010 0.363672 0.000000
0.363916 0.362763 0.000000
0.506404 0.361706 0.000000
0.649197 0.360574 0.000000
0.786952 0.359436 0.000000
0.914213 0.358319 0.000000
1.000000 0.357337 0.000000
0.000000 0.505403 0.000000
0.094718 0.504994 0.000000
0.221474 0.504225 0.000000
0.358929 0.503146 0.000000
0.501733 0.501733 0.000000
0.644537 0.500248 0.000000
0.782109 0.498847 0.000000
0.909218 0.497613 0.000000
1.000000 0.496630 0.000000
0.000000 0.646118 0.000000
0.089253 0.645146 0.000000
0.216361 0.643913 0.000000
0.353933 0.642512 0.000000
0.496738 0.641027 0.000000
0.639542 0.639542 0.000000
0.777078 0.638148 0.000000
0.903739 0.636995 0.000000
1.000000 0.636140 0.000000
0.000000 0.780389 0.000000
0.084539 0.779406 0.000000
0.211648 0.778173 0.000000
0.349155 0.776776 0.000000
0.491633 0.775308 0.000000
0.633787 0.773850 0.000000
0.770346 0.772485 0.000000
0.896087 0.771296 0.000000
1.000000 0.770365 0.000000
0.000000 0.904545 0.000000
0.080292 0.903498 0.000000
0.207081 0.902182 0.000000
0.344012 0.900688 0.000000
0.485776 0.899103 0.000000
0.627104 0.897512 0.000000
0.762776 0.896001 0.000000
0.887626 0.894652 0.000000
0.996549 0.893548 0.000000
0.000000 1.000000 0.000000
0.076677 1.000000 0.000000
0.202929 1.000000 0.000000
0.339148 1.000000 0.000000
0.480061 1.000000 0.000000
0.620443 1.000000 0.000000
0.755129 1.000000 0.000000
0.879015 1.000000 0.000000
0.987070 1.000000 0.000000
0.009988 0.000000 0.130203
0.117768 0.000000 0.127649
0.241159 0.000000 0.124897
0.375282 0.000000 0.122026
0.515161 0.000000 0.119118
0.655734 0.000000 0.116256
0.791853 0.000000 0.113525
0.918296 0.000000 0.111011
1.000000 0.000000 0.108803
0.003823 0.106693 0.121785
0.112521 0.105970 0.119383
0.236977 0.104986 0.116788
0.372220 0.103821 0.114082
0.513190 0.102554 0.111348
0.654749 0.101268 0.108673
0.791685 0.100046 0.106142
0.918724 0.098970 0.103847
1.000000 0.098126 0.101877
0.000000 0.229970 0.113088
0.106632 0.229447 0.110868
0.232025 0.228646 0.108463
0.368228 0.227648 0.105959
0.510102 0.226532 0.103444
0.652438 0.225380 0.101007
0.789963 0.224273 0.098741
0.917353 0.223292 0.096743
1.000000 0.222517 0.095117
0.000000 0.364612 0.104486
0.100424 0.364214 0.102494
0.226610 0.363511 0.100338
0.363585 0.362581 0.098107
0.506128 0.361500 0.095900
0.648952 0.360341 0.093823
0.786701 0.359166 0.092004
0.913879 0.357985 0.090670
1.000000 0.357003 0.089687
0.000000 0.505275 0.096457
0.094292 0.504832 0.094794
0.221102 0.504019 0.093023
0.358595 0.502873 0.091294
0.501399 0.501399 0.089794
0.644203 0.499914 0.088310
0.781776 0.498513 0.086908
0.908884 0.497279 0.085675
1.000000 0.496297 0.084692
0.000000 0.645795 0.089902
0.088919 0.644813 0.088919
0.216027 0.643579 0.087685
0.353600 0.642178 0.086284
0.496404 0.640693 0.084799
0.639208 0.639208 0.083314
0.776646 0.637835 0.082033
0.903195 0.636700 0.081216
1.000000 0.635858 0.080817
0.000000 0.780055 0.085188
0.084205 0.779073 0.084205
0.211314 0.777839 0.082972
0.348761 0.776447 0.081818
0.491170 0.774982 0.080818
0.633244 0.773527 0.079970
0.769717 0.772165 0.079328
0.895370 0.770979 0.078961
1.000000 0.770051 0.078940
0.000000 0.904192 0.081441
0.079933 0.903137 0.081003
0.206676 0.901817 0.080451
0.343541 0.900320 0.079849
0.485226 0.898733 0.079268
0.626465 0.897140 0.078781
0.762042 0.895627 0.078466
0.886797 0.894277 0.078398
0.995635 0.893173 0.078656
0.000000 1.000000 0.080473
0.076306 1.000000 0.080424
0.202495 1.000000 0.080216
0.338634 1.000000 0.079927
0.479454 1.000000 0.079637
0.619734 1.000000 0.079425
0.754314 1.000000 0.079370
0.878099 1.000000 0.079550
0.986064 1.000000 0.080042
0.009273 0.000000 0.253908
0.117150 0.000000 0.251703
0.240653 0.000000 0.249288
0.374895 0.000000 0.246745
0.514892 0.000000 0.244154
0.655572 0.000000 0.241598
0.791781 0.000000 0.239161
0.918294 0.000000 0.236930
1.000000 0.000000 0.234992
0.003132 0.106367 0.246622
0.111918 0.105638 0.244534
0.236474 0.104648 0.242241
0.371822 0.103476 0.239825
0.512892 0.102203 0.237369
0.654540 0.100911 0.234958
0.791546 0.099682 0.232680
0.918633 0.098601 0.230623
1.000000 0.097751 0.228877
0.000000 0.229712 0.238933
0.106049 0.229179 0.236986
0.231530 0.228367 0.234843
0.367820 0.227357 0.232586
0.509773 0.226229 0.230303
0.652173 0.225065 0.228084
0.789742 0.223944 0.226020
0.917149 0.222949 0.224208
1.000000 0.222157 0.222748
0.000000 0.364398 0.231199
0.099870 0.363982 0.229435
0.226128 0.363259 0.227490
0.363168 0.362307 0.225456
0.505762 0.361201 0.223428
0.648612 0.360012 0.221511
0.786339 0.358790 0.219842
0.913460 0.357566 0.218593
1.000000 0.356584 0.217610
0.000000 0.505051 0.223872
0.093787 0.504570 0.222381
0.220651 0.503710 0.220765
0.358176 0.502465 0.219202
0.500980 0.500980 0.217718
0.643784 0.499495 0.216233
0.781357 0.498094 0.214832
0.908465 0.496860 0.213598
1.000000 0.495878 0.212615
0.000000 0.645376 0.217825
0.088500 0.644394 0.216842
0.215608 0.643160 0.215608
0.353181 0.641759 0.214207
0.495985 0.640274 0.212722
0.638789 0.638789 0.211238
0.776094 0.637444 0.210033
0.902541 0.636325 0.209196
1.000000 0.635494 0.208736
0.000000 0.779636 0.213111
0.083786 0.778654 0.212129
0.210882 0.777421 0.210929
0.348269 0.776033 0.209818
0.490610 0.774572 0.208780
0.632604 0.773120 0.207858
0.768991 0.771761 0.207118
0.894555 0.770578 0.206631
1.000000 0.769654 0.206471
0.000000 0.903751 0.209432
0.079487 0.902691 0.208941
0.206181 0.901367 0.208306
0.342981 0.899866 0.207597
0.484585 0.898277 0.206888
0.625733 0.896683 0.206258
0.761214 0.895169 0.205783
0.885875 0.893819 0.205541
0.994628 0.892713 0.205611
0.000000 1.000000 0.208176
0.075850 1.000000 0.207993
0.201976 1.000000 0.207634
0.338034 1.000000 0.207181
0.478758 1.000000 0.206712
0.618935 1.000000 0.206308
0.753409 1.000000 0.206049
0.877092 1.000000 0.206013
0.984966 0.999625 0.206279
0.008507 0.000000 0.387940
0.116478 0.000000 0.386121
0.240092 0.000000 0.384081
0.374452 0.000000 0.381899
0.514565 0.000000 0.379657
0.655350 0.000000 0.377437
0.791648 0.000000 0.375323
0.918227 0.000000 0.373401
1.000000 0.000000 0.371758
0.002389 0.105984 0.381906
0.111261 0.105248 0.380163
0.235917 0.104252 0.378201
0.371367 0.103074 0.376103
0.512535 0.101794 0.373950
0.654269 0.100496 0.371828
0.791344 0.099261 0.369822
0.918476 0.098173 0.368020
1.000000 0.097318 0.366512
0.000000 0.229395 0.375323
0.105413 0.228851 0.373675
0.230979 0.228028 0.371814
0.367354 0.227006 0.369823
0.509385 0.225866 0.367790
0.651846 0.224689 0.365801
0.789454 0.223554 0.363948
0.916874 0.222544 0.362325
1.000000 0.221734 0.361030
0.000000 0.364122 0.368528
0.099264 0.363686 0.367008
0.225591 0.362943 0.365287
0.362695 0.361968 0.363455
0.505335 0.360836 0.361607
0.648204 0.359613 0.359847
0.785876 0.358324 0.358324
0.912984 0.357091 0.357091
1.000000 0.356108 0.356108
0.000000 0.504759 0.361939
0.093233 0.504238 0.360620
0.220148 0.503323 0.359152
0.357700 0.501989 0.357700
0.500504 0.500504 0.356215
0.643308 0.499019 0.354730
0.780881 0.497618 0.353329
0.907989 0.496384 0.352095
1.000000 0.495402 0.351113
0.000000 0.644901 0.356322
0.088024 0.643918 0.355340
0.215133 0.642684 0.354106
0.352705 0.641283 0.352705
0.495509 0.639798 0.351220
0.638280 0.638322 0.349758
0.775458 0.637002 0.348573
0.901810 0.635897 0.347677
1.000000 0.635078 0.347121
0.000000 0.779160 0.351609
0.083311 0.778178 0.350626
0.210378 0.776949 0.349476
0.347711 0.775564 0.348342
0.489983 0.774106 0.347230
0.631897 0.772657 0.346202
0.768196 0.771302 0.345330
0.893672 0.770122 0.344689
1.000000 0.769201 0.344357
0.000000 0.903251 0.347934
0.078983 0.902186 0.347355
0.205627 0.900858 0.346603
0.342359 0.899355 0.345754
0.483881 0.897764 0.344886
0.624937 0.896169 0.344076
0.760322 0.894655 0.343406
0.884888 0.893304 0.342954
0.993554 0.892198 0.342799
0.000000 1.000000 0.346277
0.075338 1.000000 0.345926
0.201398 1.000000 0.345383
0.337373 1.000000 0.344728
0.478002 1.000000 0.344044
0.618074 1.000000 0.343410
0.752442 1.000000 0.342908
0.876022 1.000000 0.342617
0.983805 0.999041 0.342615
0.007715 0.000000 0.527287
0.115780 0.000000 0.525868
0.239504 0.000000 0.524215
0.373980 0.000000 0.522407
0.514206 0.000000 0.520525
0.655095 0.000000 0.518651
0.791481 0.000000 0.516868
0.918124 0.000000 0.515262
1.000000 0.000000 0.513918
0.001621 0.105570 0.522548
0.110579 0.104829 0.521160
0.235332 0.103826 0.519539
0.370883 0.102642 0.517766
0.512147 0.101356 0.515923
0.653965 0.100050 0.514093
0.791106 0.098809 0.512363
0.918281 0.097715 0.510818
1.000000 0.096854 0.509546
0.000000 0.229046 0.517101
0.104751 0.228491 0.515757
0.230401 0.227657 0.514182
0.366860 0.226623 0.512461
0.508964 0.225471 0.510676
0.651484 0.224280 0.508916
0.789129 0.223131 0.507268
0.916555 0.222104 0.505824
1.000000 0.221276 0.504680
0.000000 0.363811 0.511258
0.098634 0.363356 0.509980
0.225028 0.362591 0.508479
0.362192 0.361593 0.506844
0.504875 0.360432 0.505165
0.647755 0.359171 0.503542
0.785372 0.357820 0.502109
0.912480 0.356586 0.500875
1.000000 0.355604 0.499893
0.000000 0.504425 0.505392
0.092659 0.503861 0.504232
0.219626 0.502877 0.502890
0.357196 0.501485 0.501485
0.500000 0.500000 0.500000
0.642804 0.498515 0.498515
0.780376 0.497114 0.497114
0.907485 0.495880 0.495880
1.000000 0.494911 0.494910
0.000000 0.644396 0.500107
0.087520 0.643414 0.499125
0.214628 0.642180 0.497891
0.352201 0.640779 0.496490
0.495005 0.639294 0.495005
0.637693 0.637838 0.493572
0.774770 0.636537 0.492347
0.901030 0.635445 0.491361
1.000000 0.634637 0.490682
0.000000 0.778656 0.495394
0.082806 0.777673 0.494411
0.209836 0.776449 0.493284
0.347115 0.775068 0.492087
0.489317 0.773613 0.490873
0.631150 0.772168 0.489712
0.767361 0.770816 0.488684
0.892749 0.769639 0.487866
1.000000 0.768721 0.487338
0.000000 0.902720 0.491646
0.078450 0.901651 0.490952
0.205042 0.900320 0.490059
0.341705 0.898816 0.489046
0.483143 0.897223 0.487993
0.624106 0.895627 0.486982
0.759393 0.894112 0.486093
0.883864 0.892761 0.485407
0.992443 0.891655 0.485003
0.000000 1.000000 0.489504
0.074797 1.000000 0.488961
0.200791 1.000000 0.488209
0.336682 1.000000 0.487330
0.477213 1.000000 0.486406
0.617181 1.000000 0.485519
0.751440 1.000000 0.484750
0.874917 0.999741 0.484179
0.982609 0.998430 0.483884
0.006925 0.000000 0.666907
0.115083 0.000000 0.665879
0.238916 0.000000 0.664605
0.373507 0.000000 0.663161
0.513845 0.000000 0.661629
0.654836 0.000000 0.660090
0.791306 0.000000 0.658628
0.918012 0.000000 0.657326
1.000000 0.000000 0.656270
0.000856 0.105155 0.663432
0.109898 0.104408 0.662389
0.234747 0.103398 0.661099
0.370397 0.102207 0.659640
0.511756 0.100915 0.658095
0.653656 0.099603 0.656546
0.790860 0.098355 0.655078
0.918075 0.097255 0.653775
1.000000 0.096388 0.652725
0.000000 0.228694 0.659086
0.104092 0.228128 0.658034
0.229824 0.227282 0.656734
0.366364 0.226236 0.655267
0.508540 0.225071 0.653717
0.651115 0.223866 0.652169
0.788792 0.222703 0.650709
0.916219 0.221659 0.649423
1.000000 0.220808 0.648401
0.000000 0.363494 0.654152
0.098007 0.363019 0.653101
0.224468 0.362232 0.651804
0.361689 0.361208 0.650346
0.504410 0.360017 0.648813
0.647288 0.358709 0.647297
0.784867 0.357316 0.645894
0.911976 0.356082 0.644660
1.000000 0.355099 0.643678
0.000000 0.504078 0.648951
0.092095 0.503465 0.647923
0.219119 0.502382 0.646671
0.356692 0.500981 0.645270
0.499496 0.499496 0.643785
0.642300 0.498011 0.642300
0.779872 0.496610 0.640899
0.906981 0.495376 0.639665
1.000000 0.494445 0.638706
0.000000 0.643892 0.643892
0.087016 0.642909 0.642909
0.214124 0.641676 0.641676
0.351696 0.640274 0.640274
0.494501 0.638790 0.638790
0.637078 0.637362 0.637356
0.774062 0.636077 0.636056
0.900232 0.634997 0.634959
1.000000 0.634200 0.634140
0.000000 0.778152 0.639178
0.082296 0.777171 0.638205
0.209288 0.775951 0.637045
0.346511 0.774573 0.635759
0.488643 0.773121 0.634422
0.630393 0.771679 0.633114
0.766516 0.770330 0.631915
0.891814 0.769158 0.630908
1.000000 0.768243 0.630172
0.000000 0.902188 0.635277
0.077915 0.901115 0.634451
0.204455 0.899782 0.633401
0.341046 0.898275 0.632210
0.482400 0.896681 0.630961
0.623268 0.895084 0.629737
0.758456 0.893569 0.628619
0.882831 0.892218 0.627688
0.991323 0.891112 0.627026
0.000000 1.000000 0.632598
0.074256 1.000000 0.631852
0.200182 1.000000 0.630881
0.335988 1.000000 0.629767
0.476421 1.000000 0.628594
0.616281 1.000000 0.627444
0.750432 1.000000 0.626399
0.873804 0.999131 0.625539
0.981404 0.997818 0.624944
0.006164 0.000000 0.801725
0.114415 0.000000 0.801059
0.238356 0.000000 0.800132
0.373059 0.000000 0.799023
0.513508 0.000000 0.797812
0.654599 0.000000 0.796580
0.791153 0.000000 0.795410
0.917919 0.000000 0.794384
1.000000 0.000000 0.793588
0.000121 0.104765 0.799413
0.109246 0.104011 0.798688
0.234191 0.102996 0.797699
0.369939 0.101798 0.796526
0.511390 0.100499 0.795251
0.653369 0.099181 0.793955
0.790634 0.097927 0.792722
0.917887 0.096821 0.791635
1.000000 0.095947 0.790778
0.000000 0.228365 0.796072
0.103464 0.227788 0.795285
0.229277 0.226931 0.794231
0.365895 0.225873 0.792992
0.508141 0.224694 0.791650
0.650768 0.223476 0.790286
0.788472 0.222297 0.788984
0.915893 0.221236 0.787825
1.000000 0.220358 0.786886
0.000000 0.363198 0.791955
0.097413 0.362702 0.791103
0.223938 0.361893 0.789982
0.361213 0.360842 0.788671
0.503968 0.359617 0.787251
0.646819 0.358241 0.785793
0.784392 0.356840 0.784392
0.911500 0.355606 0.783158
1.000000 0.354624 0.782175
0.000000 0.503744 0.787321
0.091571 0.503076 0.786392
0.218643 0.501906 0.785168
0.356216 0.500505 0.783767
0.499020 0.499020 0.782282
0.641824 0.497535 0.780798
0.779396 0.496134 0.779396
0.906505 0.494900 0.778163
1.000000 0.494022 0.777182
0.000000 0.643416 0.782390
0.086540 0.642434 0.781407
0.213648 0.641200 0.780173
0.351220 0.639799 0.778772
0.493996 0.638323 0.777287
0.636469 0.636921 0.775806
0.773364 0.635650 0.774413
0.899446 0.634581 0.773193
1.000000 0.633794 0.772228
0.000000 0.777676 0.777676
0.081808 0.776698 0.776694
0.208762 0.775482 0.775466
0.345928 0.774107 0.774074
0.487988 0.772659 0.772606
0.629655 0.771220 0.771144
0.765688 0.769875 0.769773
0.890896 0.768706 0.768575
1.000000 0.767794 0.767633
0.000000 0.901684 0.773547
0.077408 0.900607 0.772580
0.203892 0.899271 0.771369
0.340412 0.897762 0.770000
0.481679 0.896167 0.768555
0.622451 0.894570 0.767119
0.757540 0.893054 0.765776
0.881817 0.891703 0.764606
0.990222 0.890597 0.763692
0.000000 1.000000 0.770317
0.073742 1.000000 0.769370
0.199599 1.000000 0.768182
0.335319 1.000000 0.766838
0.475652 1.000000 0.765421
0.615404 1.000000 0.764015
0.749445 1.000000 0.762702
0.872713 0.998548 0.761563
0.980220 0.997233 0.760677
0.005460 0.000000 0.926639
0.113803 0.000000 0.926283
0.237850 0.000000 0.925654
0.372666 0.000000 0.924831
0.513224 0.000000 0.923893
0.654413 0.000000 0.922922
0.791048 0.000000 0.921999
0.917874 0.000000 0.921206
1.000000 0.000000 0.920628
0.000000 0.104428 0.925323
0.108652 0.103668 0.924867
0.233691 0.102647 0.924134
0.369535 0.101443 0.923203
0.511076 0.100138 0.922155
0.653133 0.098814 0.921071
0.790457 0.097554 0.920032
0.917743 0.096442 0.919121
1.000000 0.095562 0.918419
0.000000 0.228089 0.922834
0.102894 0.227501 0.922268
0.228787 0.226632 0.921420
0.365482 0.225561 0.920369
0.507795 0.224370 0.919195
0.650470 0.223137 0.917978
0.788196 0.221943 0.916796
0.915604 0.220862 0.915725
1.000000 0.219945 0.914812
0.000000 0.362952 0.919395
0.096881 0.362435 0.918704
0.223467 0.361602 0.917721
0.360794 0.360523 0.916520
0.503575 0.359259 0.915172
0.646400 0.357822 0.913716
0.783973 0.356421 0.912315
0.911081 0.355187 0.911081
1.000000 0.354205 0.910098
0.000000 0.503451 0.915201
0.091120 0.502714 0.914322
0.218224 0.501487 0.913092
0.355797 0.500086 0.911690
0.498601 0.498601 0.910206
0.641405 0.497116 0.908721
0.778977 0.495715 0.907320
0.906040 0.494497 0.906080
1.000000 0.493667 0.905040
0.000000 0.642997 0.910313
0.086121 0.642015 0.909330
0.213229 0.640781 0.908096
0.350801 0.639380 0.906695
0.493512 0.637925 0.905188
0.635898 0.636542 0.903635
0.772706 0.635283 0.902141
0.898700 0.634226 0.900798
1.000000 0.633448 0.899692
0.000000 0.777257 0.905599
0.081372 0.776284 0.904573
0.208287 0.775071 0.903260
0.345396 0.773699 0.901760
0.487382 0.772254 0.900162
0.628964 0.770818 0.898553
0.764906 0.769477 0.897020
0.890023 0.768311 0.895646
0.999193 0.767403 0.894514
0.000000 0.901234 0.901187
0.076957 0.900154 0.900085
0.203384 0.898815 0.898721
0.339829 0.897305 0.897184
0.481008 0.895709 0.895558
0.621684 0.894111 0.893928
0.756671 0.892596 0.892378
0.880850 0.891244 0.890990
0.989168 0.890138 0.889847
0.000000 1.000000 0.897436
0.073285 1.000000 0.896302
0.199071 1.000000 0.894915
0.334703 1.000000 0.893360
0.474934 1.000000 0.891722
0.614578 1.000000 0.890084
0.748508 0.999573 0.888528
0.871669 0.998019 0.887136
0.979083 0.996703 0.885988
0.004840 0.000000 1.000000
0.113274 0.000000 1.000000
0.237427 0.000000 1.000000
0.372354 0.000000 1.000000
0.513019 0.000000 1.000000
0.654306 0.000000 1.000000
0.791020 0.000000 1.000000
0.917903 0.000000 1.000000
1.000000 0.000000 1.000000
0.000000 0.104172 1.000000
0.108144 0.103407 1.000000
0.233275 0.102380 1.000000
0.369214 0.101170 1.000000
0.510844 0.099859 1.000000
0.652975 0.098529 1.000000
0.790355 0.097263 1.000000
0.917674 0.096145 1.000000
1.000000 0.095259 1.000000
0.000000 0.227893 1.000000
0.102412 0.227294 1.000000
0.228383 0.226413 1.000000
0.365153 0.225331 1.000000
0.507530 0.224126 1.000000
0.650250 0.222879 1.000000
0.787993 0.221667 1.000000
0.915375 0.220564 1.000000
1.000000 0.219611 1.000000
0.000000 0.362783 1.000000
0.096438 0.362245 1.000000
0.223085 0.361387 1.000000
0.360460 0.360277 1.000000
0.503260 0.358967 1.000000
0.646067 0.357488 1.000000
0.783639 0.356087 1.000000
0.910747 0.354854 1.000000
1.000000 0.353871 1.000000
0.000000 0.503225 1.000000
0.090782 0.502387 1.000000
0.217891 0.501153 1.000000
0.355463 0.499752 1.000000
0.498267 0.498267 1.000000
0.641071 0.496782 1.000000
0.778644 0.495381 1.000000
0.905591 0.494202 1.000000
1.000000 0.493406 1.000000
0.000000 0.642663 1.000000
0.085787 0.641681 1.000000
0.212896 0.640447 1.000000
0.350468 0.639046 1.000000
0.493091 0.637620 1.000000
0.635395 0.636252 1.000000
0.772118 0.635005 1.000000
0.898024 0.633959 1.000000
1.000000 0.633190 1.000000
0.000000 0.776925 1.000000
0.081020 0.775956 1.000000
0.207893 0.774746 1.000000
0.344942 0.773377 1.000000
0.486853 0.771935 1.000000
0.628349 0.770503 1.000000
0.764199 0.769164 1.000000
0.889225 0.768001 1.000000
0.998310 0.767096 1.000000
0.000000 0.900868 1.000000
0.076589 0.899785 1.000000
0.202958 0.898444 1.000000
0.339328 0.896932 1.000000
0.480417 0.895335 1.000000
0.620994 0.893737 1.000000
0.755879 0.892220 1.000000
0.879959 0.890868 1.000000
0.988188 0.889762 1.000000
0.000000 1.000000 1.000000
0.072911 1.000000 1.000000
0.198625 1.000000 1.000000
0.334167 1.000000 1.000000
0.474297 1.000000 1.000000
0.613829 1.000000 1.000000
0.747647 0.999129 0.998770
0.870701 0.997573 0.997172
0.978021 0.996254 0.995810
